icons/measure-building-height-shadow-32-f.svg

<svg id="icons" xmlns="http://www.w3.org/2000/svg" viewBox="0 0 32 32"><title>measure-building-height-shadow-32measure-building-height-shadow-32-f</title><path d="M15,1.76471,29.08478,26.62018a.99352.99352,0,0,1,.46789-.51471.97514.97514,0,0,1,.2121-.05L15,0H1V31H0v1H32V31H15ZM4,4H7V7H4ZM9,4h3V7H9ZM4,11H7v3H4Zm5,0h3v3H9ZM4,18H7v3H4Zm5,0h3v3H9ZM4,25H7v3H4Zm5,0h3v3H9Zm9,3H30V27l2,1.5L30,30V29H18v1l-2-1.5L18,27Z"/></svg>

<svg xmlns="http://www.w3.org/2000/svg" viewBox="0 0 32 32"><path d="M15 1.765L29.085 26.62a.994.994 0 0 1 .468-.515.975.975 0 0 1 .212-.05L15 0H1v31H0v1h32v-1H15zM4 4h3v3H4zm5 0h3v3H9zm-5 7h3v3H4zm5 0h3v3H9zm-5 7h3v3H4zm5 0h3v3H9zm-5 7h3v3H4zm5 0h3v3H9zm9 3h12v-1l2 1.5-2 1.5v-1H18v1l-2-1.5 2-1.5z"/></svg>
